outputs/icons/alert/error_outline_round.svg

<svg xmlns="http://www.w3.org/2000/svg" width="1200" height="1200" fill="none"><g clip-path="url(#a)"><path fill="#000" d="M600 350c27.5 0 50 22.5 50 50v200c0 27.5-22.5 50-50 50s-50-22.5-50-50V400c0-27.5 22.5-50 50-50m-.5-250C323.5 100 100 324 100 600s223.5 500 499.5 500C876 1100 1100 876 1100 600S876 100 599.5 100m.5 900c-221 0-400-179-400-400s179-400 400-400 400 179 400 400-179 400-400 400m50-150H550V750h100z"/></g><defs><clipPath id="a"><path fill="#fff" d="M0 0h1200v1200H0z"/></clipPath></defs></svg>

<svg width="1200" height="1200" viewBox="0 0 1200 1200" fill="none" xmlns="http://www.w3.org/2000/svg"><g clip-path="url(#clip0_223_2050)"><path d="M600 350C627.5 350 650 372.5 650 400V600C650 627.5 627.5 650 600 650C572.5 650 550 627.5 550 600V400C550 372.5 572.5 350 600 350ZM599.5 100C323.5 100 100 324 100 600C100 876 323.5 1100 599.5 1100C876 1100 1100 876 1100 600C1100 324 876 100 599.5 100ZM600 1000C379 1000 200 821 200 600C200 379 379 200 600 200C821 200 1000 379 1000 600C1000 821 821 1000 600 1000ZM650 850H550V750H650V850Z" fill="black"/></g><defs><clipPath id="clip0_223_2050"><path width="24" fill="white" d="M0 0H1200V1200H0V0z"/></clipPath></defs></svg>
